X: 9
T: The Banks Of Lough Gowna
R: jig
M: 6/8
L: 1/8
K: Bmin
|:B3 BAF|FEF A3|B3 BAF|=d2e fed|-
B/c/dB BAF|FEF A3|def =gfe|1 fdB B2A:|2 fdB B2c||
|:def a3|afb afe|dFA def|=g3 fdB|-
def a3|afb afe|def =gfe|1 fdB B2c:|2 fdB B2A||


Tune 775	Setting 775

